X: 10497
T: Doodle
R: polka
M: 2/4
K: Gminor
F2F2|G>Acc|dc fc|d/e/d/c/ AG|F2F2|G>Acc|1 AcGA GFFC:|2 AcGA GFAc||
ff> (3c/d/c/|fg aa|fg ff|gffc|dccA|cGAF|FAc2:|

